T: Reel Saint-Antoine
M: 4/4
L: 1/8
K: Amaj
g|:a3 (a {b}ae)ce| a3 (a {b}ae)ce|agfe dcBA|GABG Eefg|
a3 (a {b}ae)ce| a3 (a {b}ae)ce|agfe dcBA|1GABG Aefg:|2GABG A3B|
|:c3(c {d}cB)ce|dcBA GABc|d3(d {e}dc)df|edcB AGAB|
c3(c {d}cB)ce|dcBA GABc|defg agfe|[M:3/2]dcBA GABG A3B:|
|:[M:C|]cAA(A cA)AA|dcBA GABc|dBB(B dB)BB|edcB AGAB|
cAA(A cA)AA|dcBA GABc| defg agfe|
1[M:3/2]dcBA GABG A3B:|2dcBA GABG A3|]
